X:1
T:Miss Wright
L:1/8
Q:1/8=232
M:4/4
I:linebreak $
K:Emin
V:1 treble 
V:1
|: B | G>E E/E/E E2 EF | GE GB eB GE | F>D D/D/D D2 DE | FD FA dA FD | G>E E/E/E E2 EF |$ %6
 GE GB eB GE | F>D D/D/D D2 DE | FA d^c BA GA | Be ee ge ee | be ee ge ee |$ fd dd Ad dd | %12
 FG EF D2 d2 | Be ee ge ee | be ee ge ee | fg ef d2 d^c | BA GF E3 :| %17
